src/Pure/16/symbolic/actions/list-drag-handle-symbolic.svg

<svg height="16px" viewBox="0 0 16 16" width="16px" xmlns="http://www.w3.org/2000/svg">
    <path d="m 4.496094 0 c -0.832032 0 -1.5 0.671875 -1.5 1.5 s 0.667968 1.5 1.5 1.5 c 0.828125 0 1.5 -0.671875 1.5 -1.5 s -0.671875 -1.5 -1.5 -1.5 z m 6 0 c -0.832032 0 -1.5 0.671875 -1.5 1.5 s 0.667968 1.5 1.5 1.5 c 0.828125 0 1.5 -0.671875 1.5 -1.5 s -0.671875 -1.5 -1.5 -1.5 z m -6 6 c -0.832032 0 -1.5 0.671875 -1.5 1.5 s 0.667968 1.5 1.5 1.5 c 0.828125 0 1.5 -0.671875 1.5 -1.5 s -0.671875 -1.5 -1.5 -1.5 z m 6 0 c -0.832032 0 -1.5 0.671875 -1.5 1.5 s 0.667968 1.5 1.5 1.5 c 0.828125 0 1.5 -0.671875 1.5 -1.5 s -0.671875 -1.5 -1.5 -1.5 z m -6 6 c -0.832032 0 -1.5 0.671875 -1.5 1.5 s 0.667968 1.5 1.5 1.5 c 0.828125 0 1.5 -0.671875 1.5 -1.5 s -0.671875 -1.5 -1.5 -1.5 z m 6 0 c -0.832032 0 -1.5 0.671875 -1.5 1.5 s 0.667968 1.5 1.5 1.5 c 0.828125 0 1.5 -0.671875 1.5 -1.5 s -0.671875 -1.5 -1.5 -1.5 z m 0 0" fill="#363636"/>
</svg>

<?xml version="1.0" encoding="UTF-8" standalone="no"?>
<svg
   height="16px"
   viewBox="0 0 16 16"
   width="16px"
   version="1.1"
   id="svg1"
   sodipodi:docname="list-drag-handle-symbolic.svg"
   inkscape:version="1.4.2 (ebf0e940d0, 2025-05-08)"
   xmlns:inkscape="http://www.inkscape.org/namespaces/inkscape"
   xmlns:sodipodi="http://sodipodi.sourceforge.net/DTD/sodipodi-0.dtd"
   xmlns="http://www.w3.org/2000/svg"
   xmlns:svg="http://www.w3.org/2000/svg">
  <defs
      id="defs1">
      <style
          id="current-color-scheme"
          type="text/css">
          .ColorScheme-Text { color:#363636; }
      </style>
  </defs>
  <sodipodi:namedview
     id="namedview1"
     pagecolor="#ffffff"
     bordercolor="#000000"
     borderopacity="0.25"
     inkscape:showpageshadow="2"
     inkscape:pageopacity="0.0"
     inkscape:pagecheckerboard="0"
     inkscape:deskcolor="#d1d1d1"
     inkscape:zoom="49.6875"
     inkscape:cx="8"
     inkscape:cy="8"
     inkscape:window-width="1920"
     inkscape:window-height="1010"
     inkscape:window-x="0"
     inkscape:window-y="0"
     inkscape:window-maximized="1"
     inkscape:current-layer="svg1" />
  <path
     d="M 4.5,0 C 3.667968,0 3,0.671875 3,1.5 3,2.328125 3.667968,3 4.5,3 5.328125,3 6,2.328125 6,1.5 6,0.671875 5.328125,0 4.5,0 Z m 6,0 C 9.667968,0 9,0.671875 9,1.5 9,2.328125 9.667968,3 10.5,3 11.328125,3 12,2.328125 12,1.5 12,0.671875 11.328125,0 10.5,0 Z m -6,6 C 3.667968,6 3,6.671875 3,7.5 3,8.328125 3.667968,9 4.5,9 5.328125,9 6,8.328125 6,7.5 6,6.671875 5.328125,6 4.5,6 Z m 6,0 C 9.667968,6 9,6.671875 9,7.5 9,8.328125 9.667968,9 10.5,9 11.328125,9 12,8.328125 12,7.5 12,6.671875 11.328125,6 10.5,6 Z m -6,6 C 3.667968,12 3,12.671875 3,13.5 3,14.328125 3.667968,15 4.5,15 5.328125,15 6,14.328125 6,13.5 6,12.671875 5.328125,12 4.5,12 Z m 6,0 C 9.667968,12 9,12.671875 9,13.5 9,14.328125 9.667968,15 10.5,15 11.328125,15 12,14.328125 12,13.5 12,12.671875 11.328125,12 10.5,12 Z m 0,0"
     style="fill:currentColor"
     class="ColorScheme-Text"
     id="path1" />
</svg>
